Numix-GalliumOS/48/actions/stock_mail-unread-multiple.svg

<?xml version="1.0" encoding="UTF-8" standalone="no"?>
<svg
   xmlns:dc="http://purl.org/dc/elements/1.1/"
   xmlns:cc="http://creativecommons.org/ns#"
   xmlns:rdf="http://www.w3.org/1999/02/22-rdf-syntax-ns#"
   xmlns:svg="http://www.w3.org/2000/svg"
   xmlns="http://www.w3.org/2000/svg"
   xmlns:sodipodi="http://sodipodi.sourceforge.net/DTD/sodipodi-0.dtd"
   xmlns:inkscape="http://www.inkscape.org/namespaces/inkscape"
   width="48"
   height="48"
   viewBox="0 0 48 48"
   id="svg2"
   version="1.1"
   inkscape:version="0.91 r"
   sodipodi:docname="stock_mail-unread-multiple.svg">
  <metadata
     id="metadata22">
    <rdf:RDF>
      <cc:Work
         rdf:about="">
        <dc:format>image/svg+xml</dc:format>
        <dc:type
           rdf:resource="http://purl.org/dc/dcmitype/StillImage" />
        <dc:title />
      </cc:Work>
    </rdf:RDF>
  </metadata>
  <defs
     id="defs20" />
  <sodipodi:namedview
     pagecolor="#ffffff"
     bordercolor="#666666"
     borderopacity="1"
     objecttolerance="10"
     gridtolerance="10"
     guidetolerance="10"
     inkscape:pageopacity="0"
     inkscape:pageshadow="2"
     inkscape:window-width="1920"
     inkscape:window-height="1056"
     id="namedview18"
     showgrid="true"
     inkscape:zoom="6.9532167"
     inkscape:cx="43.012314"
     inkscape:cy="41.794597"
     inkscape:window-x="0"
     inkscape:window-y="24"
     inkscape:window-maximized="1"
     inkscape:current-layer="svg2">
    <inkscape:grid
       type="xygrid"
       id="grid4181" />
  </sodipodi:namedview>
  <g
     style="fill:#268bd2"
     id="g4-1-0"
     transform="matrix(0.77272727,0,0,0.78125,0.45454546,-8.9375)">
    <path
       d="m 6,14 c -4,0 -4,0 -4,4 l 0,24 c 0,4 0,4 4,4 l 36,0 c 4,0 4,0 4,-4 0,-8.851562 0,-18.882812 0,-24 0,-4 0,-4 -4,-4 z"
       id="path6-8-0"
       inkscape:connector-curvature="0" />
    <path
       d="m 6,46 36,0 c 4,0 4,0 4,-4 L 46,18 2,42 c 0,4 0,4 4,4 z"
       id="path8-5-1"
       inkscape:connector-curvature="0" />
  </g>
  <path
     style="fill:#000000;fill-opacity:0.10199998"
     d="M 5.0909098,27 32.909091,27 C 36,27 36,27 36,23.875 L 36,5.125 2.0000005,23.875 c 0,3.125 0,3.125 3.0909093,3.125 z"
     id="path10-5-9"
     inkscape:connector-curvature="0" />
  <path
     style="fill:#268bd2"
     d="M 32.909091,27 5.0909098,27 C 2.0000005,27 2.0000005,27 2.0000005,23.875 l 0,-18.75 L 36,23.875 C 36,27 36,27 32.909091,27 Z"
     id="path12-9-6"
     inkscape:connector-curvature="0" />
  <path
     style="fill:#ffffff;fill-opacity:0.10199998"
     d="M 2.0000005,5.125 19,14.5 36,5.125 C 36,2 36,2 32.909091,2 L 5.0909098,2 C 2.0000005,2 2.0000005,2 2.0000005,5.125 Z"
     id="path14-3-2"
     inkscape:connector-curvature="0" />
  <g
     style="fill:#268bd2"
     id="g4-1"
     transform="matrix(0.77272727,0,0,0.78125,10.454545,10.0625)">
    <path
       d="m 6,14 c -4,0 -4,0 -4,4 l 0,24 c 0,4 0,4 4,4 l 36,0 c 4,0 4,0 4,-4 0,-8.851562 0,-18.882812 0,-24 0,-4 0,-4 -4,-4 z"
       id="path6-8"
       inkscape:connector-curvature="0" />
    <path
       d="m 6,46 36,0 c 4,0 4,0 4,-4 L 46,18 2,42 c 0,4 0,4 4,4 z"
       id="path8-5"
       inkscape:connector-curvature="0" />
  </g>
  <path
     style="fill:#000000;fill-opacity:0.10199998"
     d="m 15.090909,46 27.818182,0 C 46,46 46,46 46,42.875 l 0,-18.75 -34,18.75 C 12,46 12,46 15.090909,46 Z"
     id="path10-5"
     inkscape:connector-curvature="0" />
  <path
     style="fill:#268bd2"
     d="M 42.909091,46 15.090909,46 C 12,46 12,46 12,42.875 l 0,-18.75 34,18.75 C 46,46 46,46 42.909091,46 Z"
     id="path12-9"
     inkscape:connector-curvature="0" />
  <path
     style="fill:#ffffff;fill-opacity:0.10199998"
     d="M 12,24.125 29,33.5 46,24.125 C 46,21 46,21 42.909091,21 L 15.090909,21 C 12,21 12,21 12,24.125 Z"
     id="path14-3"
     inkscape:connector-curvature="0" />
  <path
     style="fill:#cb4b16;fill-rule:evenodd"
     d="m 41.122604,14.914062 c 2.054687,9.230469 1.5,8.085938 -6.15625,4.195313 -8.03125,4.238281 -7.75,4.597656 -6.09375,-4.285156 -7.226563,-6.25 -6.398438,-5.6875 2.375,-6.839844 3.953125,-8.28125 3.617187,-7.6875 7.578125,0.054687 9.257812,1.070313 9.039062,0.707032 2.296875,6.875 z"
     id="path16"
     inkscape:connector-curvature="0" />
</svg>

<svg xmlns="http://www.w3.org/2000/svg" viewBox="0 0 48 48">
 <g transform="matrix(0.77272727,0,0,0.78125,0.45454546,-8.9375)" style="fill:#268bd2">
  <path d="m 6 14 c -4 0 -4 0 -4 4 l 0 24 c 0 4 0 4 4 4 l 36 0 c 4 0 4 0 4 -4 0 -8.852 0 -18.883 0 -24 0 -4 0 -4 -4 -4 z"/>
  <path d="m 6,46 36,0 c 4,0 4,0 4,-4 L 46,18 2,42 c 0,4 0,4 4,4 z"/>
 </g>
 <path d="m 5.091 27 27.818 0 c 3.091 0 3.091 0 3.091 -3.125 l 0 -18.75 -34 18.75 c 0 3.125 0 3.125 3.091 3.125 z" style="fill:#000;fill-opacity:0.102"/>
 <path d="m 32.909 27 -27.818 0 c -3.091 0 -3.091 0 -3.091 -3.125 l 0 -18.75 l 34 18.75 c 0 3.125 0 3.125 -3.091 3.125" style="fill:#268bd2"/>
 <path d="m 2 5.125 17 9.375 17 -9.375 c 0 -3.125 0 -3.125 -3.091 -3.125 l -27.818 0 c -3.091 0 -3.091 0 -3.091 3.125" style="fill:#fff;fill-opacity:0.102"/>
 <g transform="matrix(0.77272727,0,0,0.78125,10.454545,10.0625)" style="fill:#268bd2">
  <path d="m 6 14 c -4 0 -4 0 -4 4 l 0 24 c 0 4 0 4 4 4 l 36 0 c 4 0 4 0 4 -4 0 -8.852 0 -18.883 0 -24 0 -4 0 -4 -4 -4 z"/>
  <path d="m 6,46 36,0 c 4,0 4,0 4,-4 L 46,18 2,42 c 0,4 0,4 4,4 z"/>
 </g>
 <path d="m 15.090909,46 27.818182,0 C 46,46 46,46 46,42.875 l 0,-18.75 -34,18.75 C 12,46 12,46 15.090909,46 Z" style="fill:#000;fill-opacity:0.102"/>
 <path d="M 42.909091,46 15.090909,46 C 12,46 12,46 12,42.875 l 0,-18.75 34,18.75 C 46,46 46,46 42.909091,46 Z" style="fill:#268bd2"/>
 <path d="M 12,24.125 29,33.5 46,24.125 C 46,21 46,21 42.909091,21 L 15.090909,21 C 12,21 12,21 12,24.125 Z" style="fill:#fff;fill-opacity:0.102"/>
 <path d="m 41.12 14.914 c 2.055 9.23 1.5 8.09 -6.156 4.195 -8.03 4.238 -7.75 4.598 -6.094 -4.285 -7.227 -6.25 -6.398 -5.688 2.375 -6.84 3.953 -8.281 3.617 -7.688 7.578 0.055 9.258 1.07 9.04 0.707 2.297 6.875 z" style="fill:#cb4b16;fill-rule:evenodd"/>
</svg>
